X: 10951
T: STEPHENSON'S HORNPIPE
C: R. Stephenson, Newcastle
R: hornpipe
B: K\"ohler's Violin Repository, v.1, 1885 p.95 #1
F: http://www.archive.org/details/klersviolinrepos01edin
Z: 2012 John Chambers <jc:trillian.mit.edu>
M: C|
L: 1/8
K: Bb
u((3FGA) |\
(B>d)g>d (A>c)f>A | G>A (3Bcd uF2 u(F>D) | (E>G)c>E (D>F)B>d | (g>f)e>c (A>F)G>A |
(B>d)b>B (A>c)a>A | G>A (3Bcd F3 (D | E>G)c>E (D>F)B>d | c>eA>c B2 :|
|: u(d>e) |\
f>B~B2 c>B ((3dcB) | f>B~B2 c>B ((3dcB) | f>B~B2 g>B~B2 | ((3gab) a>g f2f>e |
(d>f)b>d (c>f)a>c | B>A (3Bcd uF2 u((3FED) | (E>G)c>E (D>F)B>d | c>eA>c B2 :|

%%sep 2 1 500

